X:514
%%etbk:tnset id:240,pos:2,rep:3x,ant:
%%etbk:wsite http://comhaltas.ie/music/detail/comhaltaslive_394_4_michael_curran/
%%etbk:wsite http://thesession.org/tunes/1473
%%etbk:video src:ytube,cde:5_wkF6TO4h0,desc:third tune
%%etbk:video src:ytube,cde:_0CTHmQ2Jus,desc:first tune
%%etbk:color #ffe6e6
%%etbk:pldat 2016-08-02T17:51,2016-07-05T17:09,2016-04-20T16:20,2016-03-24T16:28,2016-03-16T17:31,2016-01-26T17:51,2016-01-10T13:56,2015-12-31T14:23,2015-12-29T16:44,2015-12-27T15:08,2015-12-23T17:43,2015-12-15T16:54,2015-12-13T16:27,2015-12-01T17:05,2015-11-25T15:48,2015-10-14T17:59,2015-10-12T19:14,2015-10-07T17:23,2015-09-30T17:06,2015-09-06T14:35,2015-08-23T15:50,2015-08-11T17:36,2015-08-02T12:05,2015-07-30T19:34,2015-07-29T17:42,2015-07-27T19:17,2015-07-25T15:27,2015-07-15T18:08,2015-06-05T17:45,2015-05-27T19:40,2015-05-19T17:35,2015-05-18T19:33,2015-05-17T16:28,2015-04-22T15:26,2015-04-21T16:07,2015-03-23T18:40,2015-03-04T17:13,2015-02-22T16:44,2015-02-12T19:57,2015-02-10T17:53,2015-02-06T18:27,2015-02-04T17:24,2015-02-02T19:41,2015-01-28T16:14,2015-01-22T19:29,2015-01-21T18:15,2015-01-06T19:29,2014-12-29T16:53,2014-12-28T15:18,2014-12-15T17:05,2014-12-14T15:39,2014-11-13T18:51,2014-09-11T18:36,2014-09-10T16:25,2014-05-17T20:26,2014-05-05T18:45,2014-05-02T17:46,2014-04-26T16:30,2014-04-06T16:20,2014-03-27T18:57,2014-03-25T16:26,2014-03-19T19:43,2014-03-18T16:55,2014-03-16T17:11,2014-03-15T17:03,2014-03-09T14:42,2014-03-01T17:50,2014-02-24T18:55,2014-02-20T19:17,2014-02-19T16:20,2014-02-18T18:21,2014-02-15T17:07,2014-02-13T18:04,2014-02-12T19:08,2013-11-26T16:00,2013-11-20T15:18,2013-11-17T16:22,2013-11-16T15:37,2013-11-12T17:59,2013-11-11T18:04,2013-11-10T14:56,2013-11-09T15:46,2013-10-20T15:15,2013-10-05T15:42,2013-10-02T16:47,2013-09-30T18:29,2013-09-15T17:05,2013-09-12T18:46
T: Mulhaire's
Z: Piano Box Version by Martin Fleischmann
H: Created 2013-09-04 /  Last Modified 2015-08-23
R: reel
M: 4/4
L: 1/8
K: Dmaj
"D"!2!F2!4!AF !1!DF!4!A!2!F | "G" !1!G2!3!B!2!G !1!D!2!G!3!B!5!d| "A"!3!c!5!e!1!Ac eAc!5!e| "D"!3!dcde !5!fd!1!A!3!G|
"D"!2!F2AF DFAF| "G"GBB2 dBB2| "A"!1!A!2!c!4!e!3!f !4!g!1!A!2!cd|1 "D"!4!eddc !3!d2AG:|2 "D"!4!eddc !1!defg|
|:"D"!5!a2!3!f!1!d adfd|adfd edBd| "A"!2!edef !4!g!2!f!3!ga| !5!b!1!eee !5!b!1!eee|
"D"a2fd adfd|adfd !2!e!1!d!2!B!1!A | !2!F2!4!A!2!F "G"!1!G!2!BdB|"A"!1!A!3!FEF "D"!1!D4:||


